X:1
T:The Brown Haired Maiden
N:Very common tune.
Z:Transcribed Sept. 28, 2003 by Andrew T. Lenz, Jr.
C:Traditional, Arr. PM Jay Salter
R:March
M:2/4
L:1/8
Q:1/4=80
K:HP
|: e | B2 d2 | {gef}e6 g2 | {a}f3g/2f/2 {g}e2 d2 | {GdGB}d6 e2 | {gBd}B4  {g}B2 d2 |
\
| {gef}e6 g2 | {a}f3g/2f/2 {g}e2 d2 | {GdGB}d6 e2 | {gBd}B4  {g}B2 d2 |
\
|f/2a3/2 {fg}fa | A2 {Gdc}d3/2e/2 | {g}f2 {gf}ge | {Gdc}d2 {gdG}d :|
\
|{gf}g | f/2a3/2 {fg}fa | A2 {Gdc}d3/2e/2 | {g}fd {gf}gf | {g}fe {A} e{gf}g |
\
|f/2a3/2 {fg}fa | A2 {Gdc}d3/2e/2 | {g}f2 {gf}ge | {Gdc}d2 {gdG}d{gf}g |
\
|f/2a3/2 {fg}fa | A2 {Gdc}d3/2e/2 | {g}fd {gf}gf | {g}fe {A} e{gf}g |
\
|a3/2g/2 {fg}fa | A2 {Gdc}d3/2e/2 | {g}f2 {gf}ge | {Gdc}d2 {gdG}d |]
